X:1
T:Angels From the Realms of Glory
T:Angels From the Realms of Glory
T:Henry Smart 1867 REGENT SQUARE
T:James Montgomery 1816
T:Public Domain. Based on a score from hymnary.org.
Z:Public Domain. Based on a score from hymnary.org.
%%score ( 1 2 ) ( 3 4 )
L:1/8
M:4/4
K:Bb
V:1 treble nm="SOPRANO ALTO"
V:2 treble 
V:3 bass nm="TENOR BASS"
V:4 bass 
V:1
"^1: UNISON\n2, 3, 4: HARMONY\n5: UNISON+DESCANT" F2 D2 B2 F2 | d3 c B2 F2 | G2 G2 F2 B2 | %3
w: An- gels from the|realms of glo- ry,|wing your flight o'er|
w: Shep- herds in the|fields a- bid- ing,|watch- ing o'er your|
w: Sa- ges, leave your|con- tem- pla- tions,|bright- er vi- sions|
w: Though an in- fant|now we view him,|he will share his|
 F2 E2 D4 | F2 D2 B2 F2 | d3 c B2 A2 | B2 A2 G2 AB | A2 G2 F4 ||"^Refrain" c3 c A2 F2 | %9
w: all the earth;|ye who sang cre-|a- tion's sto- ry,|now pro- claim Mes- *|si- ah's birth:|Come and wor- ship,|
w: flocks by night,|God with us is|now re- sid- ing;|yon- der shines the *|in- fant Light:||
w: beam a- far;|seek the great De-|sire of na- tions;|ye have seen his *|na- tal star:||
w: Fa- ther's throne,|gath- er all the|na- tions to him;|ev- ery knee shall *|then bow down:||
 d3 c B2 G2 | e2 d2 c2 B2 | B2 A2 B4 |] %12
w: come and wor- ship,|wor- ship Christ, the|new- born King!|
w: |||
w: |||
w: |||
V:2
 D2 B,2 F2 D2 | F3 F F2 F2 | B,2 C2 D2 D2 | C2 A,2 B,4 | D2 B,2 F2 FE | D3 E D2 D2 | D2 D2 D2 D2 | %7
 F2 =E2 F4 || F3 F F2 F2 | F3 D E2 E2 | G2 F2 E2 DE | F3 E D4 |] %12
V:3
 B,2 F,2 F,2 B,2 | B,3 A, B,2 B,2 | G,2 A,2 B,2 G,2 | F,2 F,2 F,4 | B,2 B,2 F,2 F,2 | %5
 B,3 A, G,2 ^F,2 | G,2 ^F,2 D2 CB, | C2 B,2 A,4 || A,3 A, C2 A,2 | B,3 _A, G,2 B,2 | %10
 C2 F,2 G,A, B,2 | C2 C2 B,4 |] %12
V:4
 B,,2 B,,2 D,2 B,,2 | F,3 E, D,2 D,2 | E,2 E,2 D,2 G,,2 | G,,2 F,,2 B,,4 | B,2 F,2 D,2 D,C, | %5
 B,,3 C, D,2 D,2 | G,2 D,2 B,,2 G,,2 | C,2 C,2 F,4 || F,3 F, F,2 F,2 | B,,3 B,, E,2 E,2 | %10
 C,2 D,2 E,F, G,2 | F,2 F,2 B,,4 |] %12

